X:134
T: I HOB ENK A HAEUSERL AM ROAN
N: Z0133
O: Europa, Mitteleuropa, Deutschland, Mitteleuropa, Schweiz
R: Erzaehlung, lustige Romanze
M: 6/8
L: 1/16
K: G
D2 | D2G2G2F3EF2 | G4z6
G2 | c3cc2B2A2B2 | c4z6
B2 | B2d2d2d2d2zc | d2^c2=c2c2c2
c2 | c3Bc2e3dc2 | B4z6
B2 | A3^GA2c2B2A2 | G4z6

@@@ Tune index: 9892
